icons/src/svg/speedometer_inactive.svg

<svg width="32" height="32" viewBox="0 0 32 32" fill="none" xmlns="http://www.w3.org/2000/svg">
<path d="M3.70711 2.29289C3.31658 1.90237 2.68342 1.90237 2.29289 2.29289C1.90237 2.68342 1.90237 3.31658 2.29289 3.70711L28.2929 29.7071C28.6834 30.0976 29.3166 30.0976 29.7071 29.7071C30.0976 29.3166 30.0976 28.6834 29.7071 28.2929L3.70711 2.29289Z" fill="#0D0F13"/>
<path d="M25.8995 8.10169C30.2222 12.4257 31.1272 18.8738 28.6144 24.0871L27.1001 22.5728C27.5712 21.4263 27.8574 20.2216 27.9585 19.0043H26C25.4477 19.0043 25 18.5565 25 18.004C25 17.4516 25.4477 17.0038 26 17.0038H27.9585C27.7575 14.5845 26.8258 12.2146 25.1634 10.2527L19.9725 15.4451L18.558 14.0307L23.7492 8.83809C21.7878 7.17518 19.4186 6.24317 17 6.04207V8.00116C17 8.55361 16.5523 9.00145 16 9.00145C15.4477 9.00145 15 8.55361 15 8.00116V6.04207C13.782 6.14335 12.5765 6.42999 11.4293 6.90201L9.91502 5.38771C15.1275 2.87205 21.5758 3.77671 25.8995 8.10169Z" fill="#0D0F13"/>
<path d="M13.1394 17.0977L16.9073 20.8656C16.621 20.9564 16.3162 21.0053 16 21.0053C14.3431 21.0053 13 19.6618 13 18.0044C13 17.6884 13.0488 17.3838 13.1394 17.0977Z" fill="#0D0F13"/>
<path d="M4.04148 17.0047C4.23245 14.7066 5.08277 12.453 6.59244 10.5513L5.16998 9.12891C0.653095 14.6298 0.96327 22.7686 6.10051 27.9073L6.10184 27.906L6.10379 27.9079C6.49431 28.2986 7.12748 28.2986 7.518 27.9079L9.6407 25.7846C10.0312 25.394 10.0312 24.7606 9.6407 24.37C9.25018 23.9793 8.61701 23.9793 8.22649 24.37L6.83844 25.7584C5.17491 23.7961 4.24259 21.4253 4.04148 19.0052H6C6.55228 19.0052 7 18.5574 7 18.0049C7 17.4525 6.55228 17.0047 6 17.0047H4.04148Z" fill="#0D0F13"/>
</svg>

<svg fill="none" xmlns="http://www.w3.org/2000/svg" viewBox="0 0 32 32">
  <path d="M3.707 2.293a1 1 0 0 0-1.414 1.414l26 26a1 1 0 0 0 1.414-1.414l-26-26ZM25.9 8.102c4.322 4.324 5.227 10.772 2.714 15.985L27.1 22.573c.471-1.147.757-2.351.858-3.569H26a1 1 0 0 1 0-2h1.959a11.952 11.952 0 0 0-2.796-6.751l-5.19 5.192-1.415-1.414 5.191-5.193A11.946 11.946 0 0 0 17 6.042v1.96a1 1 0 1 1-2 0v-1.96a11.997 11.997 0 0 0-3.57.86L9.914 5.388c5.213-2.516 11.66-1.611 15.985 2.714ZM13.14 17.097l3.767 3.768a3 3 0 0 1-3.768-3.768ZM4.041 17.004a11.954 11.954 0 0 1 2.551-6.454L5.17 9.128c-4.517 5.5-4.207 13.64.93 18.778h.002l.002.001a1 1 0 0 0 1.414 0l2.123-2.123a1 1 0 0 0-1.415-1.415l-1.388 1.389a11.952 11.952 0 0 1-2.797-6.754H6a1 1 0 0 0 0-2H4.041Z" fill="currentColor"/>
</svg>
